X: 369
T: Charles Mac Hugh
M:3/8
L:1/16
B:O'Neill's 369
N:"Plaintive."
N:All ornaments (~) are trills, ">" is an accent.
Z:Transcribed by Chris Falt, cfalt@trytel.com
K:Gm
(GF)|(D2G2).G2|(G4 AB)|(cdcBAG)|(F2G2).A2|
.B2(Bcde)|(f2d2)(cB)|(A2F2).F2|F4 (GF)|
(D2G2).G2|(G4 AB)|(cdcBAG)|(F2G2).A2|
.B2(Bcde)|(f2d2)(~dc)|(B2G2).G2|G4||
(de|f2)">"d2 (de|f2)">"d2 d2|(cdcBAG)|.F2(FGA)z|
.B2(Bcde)|(f2d2)(dc)|(d2c2).c2|c4 (de|
f2)">"d2 (de|f2)">"d2 d2|(cdcBAG)|.F2(FGA)z|
.B2(Bcde)|(f2d2)(dc)|(B2G2).G2|G4||


